X:1
T:Title
%%score { 1 | 2 }
L:1/8
M:3/4
K:Ab
V:1 treble nm="Grand Piano"
V:2 bass 
V:1
 z2 z2[Q:1/4=75] [CE]2 | [Ec]>[CA] [Fd]2 [Ec]2 | [CA]>[DF] [CE]2 [CE]2 | Ac f2 e2 | %4
[M:2/4] [Ac]>[GB] [GB]2 |[M:1/4] [Gc]2 |[M:3/4] AG F2 [=DB]2 | E4 E2 | B>B c2 B2 | %9
[M:2/4] [CA]>[DB] [Ec]2 |[M:1/4] E2 |[M:3/4] c>c d2 c2 | [DB]>[Ec] [Fd]2 [Bf]2 | %13
 [ce][EAc] [EAc]2 [DGB]2 |[M:2/4] [CEA]4 |] %15
V:2
 z2 z2 [A,,A,]2 | [A,,A,]>[A,,A,] [A,,A,]2 [A,,A,]2 | [A,,A,]>[A,,A,] [A,,A,]2 [A,,A,]2 | %3
 [A,CE][A,EA] [A,DA]2 [A,CA]2 |[M:2/4][K:bass] [E,E]>[E,E] [E,E]2 |[M:1/4] [=E,C]2 | %6
[M:3/4] [F,CF][F,B,C] [F,A,C]2 [B,,A,]2 | [E,G,]4 E,2 | [E,G,D]>[E,G,D] [E,G,E]2 [E,G,D]2 | %9
[M:2/4] [A,,A,]>[A,,A,] [A,,A,]2 |[M:1/4] [A,C]2 |[M:3/4] [F,=A,E]>[F,A,E] [F,A,F]2 [F,A,E]2 | %12
 [B,,B,]>[B,,B,] [B,,B,]2 [G,D]2 | [A,C]A, E,2 E,2 |[M:2/4] A,,4 |] %15

